!!!!SEGMENT: pl-kk--kk-i-1--048-002_szadek-tomasz--officium-dies-est-laetitiae-et-in-terra.krn
!!!cenid: 15xx:762
!!!COM: Szadek, Tomasz
!!!COM-rismid: pe30020506
!!!CDT:
!!!CNT:
!!!OPR: Officium Dies est laetitiae
!!!OTL: Et in terra
!!!OMV: 002
!!!PDT:
!!!AGN:
!!!SMS-siglum: PL-Kk
!!!SMS-shelfmark: Kk.I.1
!!!SMS-shelfwork: 048-002 M
!!!SMS-variant:
!!!SMS-altvar:
!!!NIFC-rismid: 300258002
!!!URL-scan: http://repozytorium.nifc.pl/skany/pl-kk-nut--i-1
!!!ONB-nifc: UWAGA: Cantus (s. 145v-152r, skan 0148-0154), Altus (s. 140v-147r, skan 0334-0340), Tenor (s. 119v-126v, skan 0510-0517), Bassus (s. 132v-139r, skan 0695-0701). Części Mszy: 1. Kyrie, 2. Et in terra, 3. Patrem, 4. Sanctus
!!!AIN: 1 alto 1 bass 1 soprn 1 tenor
!!!key: F:lyd
**kern	**text	**kern	**text	**kern	**text	**kern	**text
*part4	*part4	*part3	*part3	*part2	*part2	*part1	*part1
*staff4	*staff4	*staff3	*staff3	*staff2	*staff2	*staff1	*staff1
*I"BASSVS	*	*I"TENOR	*	*I"ALTVS	*	*I"CANTVS	*
*I'B	*	*I'T	*	*I'A	*	*I'S	*
*Ibass	*	*Itenor	*	*Ialto	*	*Isoprn	*
*ICvox	*	*ICvox	*	*ICvox	*	*ICvox	*
*clefF4	*	*clefC4	*	*clefC4	*	*clefC3	*
*k[b-]	*	*k[b-]	*	*k[b-]	*	*k[b-]	*
*F:lyd	*	*F:lyd	*	*F:lyd	*	*F:lyd	*
*all\middle	*	*all\middle	*	*all\middle	*	*all\middle	*
=1-	=1-	=1-	=1-	=1-	=1-	=1-	=1-
!!LO:TX:t=P:problem:we wszystkich głosach obecne są cezury (pionowe kreseczki) dopisane później, prawdopodobnie nie odnoszą się do podziału tekstu, ponieważ często są w nietypowych miejscach (np. pośrodku ligatury), być może pełnią funkcję kresek pseudotaktowych
!!LO:TX:t=P:problem:we wszystkich głosach brak oznaczenia metrum, prawdopodobnie należy je powtórzyć z części "Kyrie"
00r	.	00r	.	2F/	Et	0r	.
.	.	.	.	2F/	in	.	.
.	.	.	.	1G	ter-	.	.
=2-	=2-	=2-	=2-	=2-	=2-	=2-	=2-
.	.	.	.	1A	-ra	2c/	ET
.	.	.	.	.	.	2c/	in
.	.	.	.	2.B-\	pax	1d	ter-
.	.	.	.	4A/	.	.	.
=3-	=3-	=3-	=3-	=3-	=3-	=3-	=3-
2C/	Et	1r	.	4G/	.	1e	-ra
.	.	.	.	4F/	.	.	.
2C/	in	.	.	2G/	.	.	.
1D	ter-	2F/	Et	2F/	ho-	2f\	pax
.	.	2F/	in	2A/	-mi-	2d\	ho-
=4-	=4-	=4-	=4-	=4-	=4-	=4-	=4-
1E	-ra	1G	ter-	2G/	-ni-	2c/	-mi-
.	.	.	.	2C/	-bus	2.c/	-ni-
*	*	*	*	*	*ij	*	*
2.F\	pax	1A	-ra	2c\	et	.	.
.	.	.	.	.	.	4B-/	.
.	.	.	.	2c\	in	4A/	-bus.
4E\	.	.	.	.	.	4G/	.
=5-	=5-	=5-	=5-	=5-	=5-	=5-	=5-
2D/	ho-	2.B-\	pax	1d	ter-	1F	.
2BB-/	-(mi-	.	.	.	.	.	.
.	.	4A/	.	.	.	.	.
1C	-n)i-	4G/	ho-	2e\	-ra	1c	.
.	.	4F/	.	.	.	.	.
.	.	2G/	-mi-	2e\	pax	.	.
=6-	=6-	=6-	=6-	=6-	=6-	=6-	=6-
1FF	-bus	2F/	-ni-	2.f\	ho-	2A/	.
.	.	2F/	-bus	.	.	1c	.
.	.	.	.	4f\	-mi-	.	.
*	*	*	*	*custos:c	*	*	*
1r	.	1G	bo-	1d	-ni-	.	.
.	.	.	.	.	.	2B-/	.
=7-	=7-	=7-	=7-	=7-	=7-	=7-	=7-
!	!	!	!	!LO:LB:g=original	!	!	!
1C	bo-	2G/	-nae	2c\	-bus	2c/	.
*	*	*	*	*	*Xij	*	*
.	.	4C/	vo-	1c	bo-	2.G/	Bo-
*	*	*custos:E	*	*	*	*	*
.	.	4D/	.	.	.	.	.
!	!	!LO:LB:g=original	!	!	!	!	!
2C/	-nae	4E/	.	.	.	.	.
.	.	4F/	.	.	.	4A/	-nae
*	*	*	*	*	*	*custos:c	*
2GG/	vo-	2.G/	.	2B-\	-ne	2B-/	.
!	!	!	!	!	!	!LO:PB:g=original	!
=8-	=8-	=8-	=8-	=8-	=8-	=8-	=8-
!	!	!	!	!LO:SIC:v:l:s=vo-	!	!	!
2AA/	-lun-	.	.	2A\	uo-	2c/	vo-
.	.	4F/	-lun-	.	.	.	.
2BB-/	.	1F	-ta-	2F/	-lun-	2d\	-lun-
1GG	-ta-	.	.	1G	-ta-	1B-	-ta-
.	.	2E/	-tis	.	.	.	.
=9-	=9-	=9-	=9-	=9-	=9-	=9-	=9-
1FF	-t(is)	2F/	.	2C/	-tis	2A/	-t(is)
*	*ij	*	*ij	*	*ij	*	*
.	.	2A/	bo-	1c	bo-	4F/	vo-
.	.	.	.	.	.	4G/	-lun-
2F\	bo-	2A/	-nae	.	.	4A/	-ta-
.	.	.	.	.	.	4B-/	.
2E\	-nae	2.G/	vo-	2G/	-ne	1c\	-tis
=10-	=10-	=10-	=10-	=10-	=10-	=10-	=10-
!	!	!	!	!LO:SIC:v:l:s=vo-	!	!	!
2F\	vo-	.	.	2A/	uo-	.	.
.	.	4F/	.	.	.	.	.
2BB-/	-lun-	1F	-lun-	2B-\	-lun-	2d\	.
*custos:FF	*	*	*	*	*	*	*
1C	-ta-	.	.	1G	-ta-	1c	.
.	.	2E/	-ta-	.	.	.	.
=11-	=11-	=11-	=11-	=11-	=11-	=11-	=11-
!LO:LB:g=original	!	!	!	!	!	!	!
2FF/	-t(is)	2F/	-tis	1A	-tis	2c/	LAu-
*	*Xij	*	*Xij	*	*	*	*
1F	Lau-	2A/	Lau-	.	.	1c	-da-
.	.	1A	-da-	0r	.	.	.
2F\	-da-	.	.	.	.	1d\	-mus
*	*	*	*	*	*Xij	*	*
=12-	=12-	=12-	=12-	=12-	=12-	=12-	=12-
1G	-mus	1B-	-m(us)	.	.	.	.
.	.	.	.	.	.	1e	te
1A	te	2c\	te,	1r	.	.	.
*	*	*custos:d	*	*	*	*	*
.	.	2c\	be-	.	.	1f\	Be-
=13-	=13-	=13-	=13-	=13-	=13-	=13-	=13-
!	!	!LO:LB:g=original	!	!	!	!	!
2.B-\	b(e)-	2.d\	-ne-	2r	.	.	.
.	.	.	.	2d\	be-	2f\	-ne-
4A\	-n(e)-	4c\	-di-	.	.	.	.
2G\	-di-	2B-\	-ci-	2d\	-ne-	2g\	-di-
2F\	-ci-	1c\	-mus	2f\	-di-	2a\	-ci-
=14-	=14-	=14-	=14-	=14-	=14-	=14-	=14-
1G	-mus	.	.	2.d\	-ci-	1g	-m(us)
.	.	2B-\	te	.	.	.	.
.	.	.	.	4d\	-mus	.	.
2C/	te	2c\	.	2c\	te	2e\	te
1F\	A-	1A\	A-	1c\	a-	1f\	A-
=15-	=15-	=15-	=15-	=15-	=15-	=15-	=15-
*	*	*	*	*custos:e-	*	*custos:g	*
2F\	-do-	2A/	-do-	2c\	-do-	2f\	-do-
!	!	!	!	!LO:LB:g=original	!	!LO:LB:g=original	!
1E-X	-ra-	2B-\	-ra-	2e-X\	-ra-	2g\	-ra-
.	.	2G/	-mus	2e-\	-mus	2g\	-mus
=16-	=16-	=16-	=16-	=16-	=16-	=16-	=16-
2F\	-m(us)	2A/	te,	1c	te	2f\	te
2F\	te	2A/	glo-	.	.	4c\	glo-
.	.	.	.	.	.	4d\	.
2r	.	2.c\	-ri-	2r	.	4e\	-ri-
.	.	.	.	.	.	4f\	.
2C/	glo-	.	.	2e-X\	glo-	2.g\	-fi-
.	.	4B-\	.	.	.	.	.
=17-	=17-	=17-	=17-	=17-	=17-	=17-	=17-
2D/	-ri-	2A/	-fi-	2d\	-ri-	.	.
.	.	.	.	.	.	4f\	-ca-
2BB-/	-fi-	2B-/	-ca-	2d\	-fi-	1f	-mus
1C	-ca-	1G	-mus	1c	-ca-	.	.
.	.	.	.	.	.	2e\	.
=18-	=18-	=18-	=18-	=18-	=18-	=18-	=18-
*	*	*custos:c	*	*	*	*	*
2FF/	-m(us)	1F	te	2c\	-mus	1f	te.
*custos:F	*	*	*	*	*	*	*
2FF/	te	.	.	2c\	te	.	.
!LO:LB:g=original	!	!LO:LB:g=original	!	!	!	!	!
1F	Gra-	1.c	Gra-	1A	Gra-	1f	Gra-
=19-	=19-	=19-	=19-	=19-	=19-	=19-	=19-
2F\	-(ti-	.	.	2A/	-(ti-	2f\	-ti-
2C/	-a)s	2c\	-ti-	2G/	-a)s	2e\	-as
4BB-/	a-	1d	-as	1B-	a-	1f	a-
4C/	.	.	.	.	.	.	.
4D/	-gi-	.	.	.	.	.	.
4E/	.	.	.	.	.	.	.
=20-	=20-	=20-	=20-	=20-	=20-	=20-	=20-
1F	-mus	2.c\	a-	1A	-gi-	1f	-gi-
.	.	4B-\	.	.	.	.	.
2r	.	4A\	.	2F/	-mus	2c/	-mus
.	.	4G\	.	.	.	.	.
2F\	a-	2A\	-gi-	2f\	a-	2a\	ti-
=21-	=21-	=21-	=21-	=21-	=21-	=21-	=21-
2G\	-gi-	2B-\	-mus	2d\	-gi-	2g\	.
2A\	-mus	1c	ti-	2c\	-mus	2f\	.
1G	ti-	.	.	1d	ti-	1g	-bi
.	.	2B-\	-bi	.	.	.	.
=22-	=22-	=22-	=22-	=22-	=22-	=22-	=22-
*	*	*	*	*	*	*	*ij
2C/	-bi	0c	.	2c\	-bi	2e\	a-
*	*	*	*	*	*ij	*	*
*	*	*	*	*custos:A	*	*	*
1C	prop-	.	.	2G/	a-	1e	-gi-
!	!	!	!	!LO:PB:g=original	!	!	!
.	.	.	.	2A/	-gi-	.	.
*	*	*	*	*	*	*custos:d	*
2C/	-ter	.	.	2G/	-mus	2e\	-mus
=23-	=23-	=23-	=23-	=23-	=23-	=23-	=23-
!	!	!	!	!	!	!LO:LB:g=original	!
1D	ma-	1r	.	4F/	ti-	4d\	ti-
.	.	.	.	4G/	.	4e\	.
.	.	.	.	4A/	.	4f\	.
.	.	.	.	4B-/	.	4d\	.
2C/	-gna	1.c	pro-	2c\	-bi	2e\	.
*	*	*	*	*	*Xij	*	*
2C/	gl(o-	.	.	2G/	prop-	1e\	-bi
*	*	*	*	*	*	*	*Xij
=24-	=24-	=24-	=24-	=24-	=24-	=24-	=24-
2AA/	-ri)-	.	.	1A	-ter	.	.
2FF/	-am	2c\	-pter	.	.	1f	prop-
4BB-/	tu-	1d	ma-	1B-	.	.	.
4C/	.	.	.	.	.	.	.
4D/	-[[am]]-	.	.	.	.	2f\	-ter
*custos:F	*	*	*	*	*	*	*
4E/	.	.	.	.	.	.	.
=25-	=25-	=25-	=25-	=25-	=25-	=25-	=25-
!LO:LB:g=original	!	!	!	!	!	!	!
2F\	-am	2.c\	-gna(m)	2A/	ma-	2f\	ma-
*	*ij	*	*	*	*	*	*
2C/	gl(o-	.	.	2G/	.	2e\	-gnam
*	*	*custos:A	*	*	*	*	*
.	.	4B-\	.	.	.	.	.
!	!	!LO:PB:g=original	!	!	!	!	!
2D/	-ri)-	2A/	.	2F/	-gnam	2f\	glo-
2E\	-am	2G/	glo-	2c\	glo-	2.g\	-ri-
=26-	=26-	=26-	=26-	=26-	=26-	=26-	=26-
2F\	tu-	2A/	-ri-	2c\	-ri-	.	.
.	.	.	.	.	.	4f\	-am
2BB-/	.	2B-/	-am	2d\	-am	1f	tu-
1C	.	1G	tu-	1c	tu-	.	.
.	.	.	.	.	.	2e\	-a(m).
=27-	=27-	=27-	=27-	=27-	=27-	=27-	=27-
2FF/	-am	2F/	-am	2A\	-am	1f	.
*	*Xij	*	*	*	*	*	*
1BB-	Do-	2F/	Do-	2d\	Do-	.	.
.	.	2F/	-mi-	2d\	-mi-	2r	.
2BB-/	-mi-	2F/	-ne	2.d\	-ne	2f\	Do-
=28-	=28-	=28-	=28-	=28-	=28-	=28-	=28-
1BB-	-ne	1D	De-	.	.	2f\	-mi-
*	*	*	*	*custos:B-	*	*	*
.	.	.	.	4c\	.	.	.
!	!	!	!	!LO:LB:g=original	!	!	!
.	.	.	.	4B-/	.	2f\	-ne
.	.	.	.	4A/	.	.	.
2C/	De-	2E/	-us	2G/	de-	2e\	De-
2FF/	-us	2.F/	Rex	2A/	-us	2c/	-ŭs
=29-	=29-	=29-	=29-	=29-	=29-	=29-	=29-
2BB-/	rex	.	.	2B-/	rex	4d\	rex
.	.	4E/	.	.	.	4c/	.
2C/	cae-	4D/	cae-	2G/	coe-	1c	cae-
.	.	4C/	.	.	.	.	.
1GG	-leſ-	1D	-leſ-	1G	-leſ-	.	.
*	*	*	*	*	*	*custos:c	*
.	.	.	.	.	.	2B-/	-le-
=30-	=30-	=30-	=30-	=30-	=30-	=30-	=30-
!	!	!	!	!	!	!LO:LB:g=original	!
0C	-tis	2C/	-tis	2G/	-tis	2c/	-ſtis
.	.	1G	De-	2c\	De-	2e\	De-
.	.	.	.	2c\	-us	2e\	-us
*	*	*custos:A	*	*	*	*	*
.	.	2G/	-us	2e-X\	pa-	2g\	pa-
=31-	=31-	=31-	=31-	=31-	=31-	=31-	=31-
!	!	!LO:LB:g=original	!	!	!	!	!
0r	.	2A\	pa-	2c\	.	2f\	-ter
.	.	2B-\	-ter	2.d\	-ter	2.f\	om-
.	.	2F/	om-	.	.	.	.
.	.	.	.	4c\	om-	4e\	-ni-
.	.	2A/	-ni-	1c\	-ni-	4d\	-po-
.	.	.	.	.	.	4c/	.
=32-	=32-	=32-	=32-	=32-	=32-	=32-	=32-
1r	.	1G	-po-	.	.	1d	-tens
.	.	.	.	2B-\	-po-	.	.
1.C	De-	2C/	-tens	2c\	-te(n)s	0e	.
.	.	2c\	De-	2G/	De-	.	.
=33-	=33-	=33-	=33-	=33-	=33-	=33-	=33-
.	.	2c\	-us	2G/	-us	.	.
2C/	-us	2c\	Pa-	2A/	pa-	.	.
*	*	*	*	*custos:G	*	*	*
2D/	pa-	2F/	-ter	2B-/	-ter	1r	.
*custos:BB-	*	*	*	*	*	*	*
!	!	!	!	!LO:LB:g=original	!	!	!
2E-X\	-ter	2.B-\	om-	2.G/	.	.	.
=34-	=34-	=34-	=34-	=34-	=34-	=34-	=34-
!LO:PB:g=original	!	!	!	!	!	!	!
2BB-/	om-	.	.	.	.	2d\	Pa-
.	.	4A/	-ni-	4F/	.	.	.
2D/	-ni-	4G/	-po-	1F	.	2B-/	-ter
.	.	4F/	.	.	.	.	.
1C	-po-	1G	-tens	.	.	2c/	om-
.	.	.	.	2E/	.	2.c/	-ni-
=35-	=35-	=35-	=35-	=35-	=35-	=35-	=35-
1FF	-tens	2A/	.	0F	.	.	.
.	.	.	.	.	.	4B-/	-po-
.	.	2.c\	Do-	.	.	4A/	-tens
.	.	.	.	.	.	4G/	.
2r	.	.	.	.	.	0A	.
.	.	4c\	-mi-	.	.	.	.
*	*	*custos:d	*	*	*	*	*
2.F\	Do-	2c\	-ne	.	.	.	.
=36-	=36-	=36-	=36-	=36-	=36-	=36-	=36-
!	!	!LO:LB:g=original	!	!	!	!	!
.	.	2d\	fi-	1r	.	.	.
4F\	-mi-	.	.	.	.	.	.
2F\	-ne	2c\	-li	.	.	.	.
!	!	!LO:SIC:v:l:s=U-	!	!	!	!	!
2G\	fi-	2B-\	V-	2r	.	1r	.
2F\	-li	2A/	-ni-	2.c\	Do-	.	.
=37-	=37-	=37-	=37-	=37-	=37-	=37-	=37-
!LO:SIC:v:l:s=U-	!	!	!	!	!	!	!
2E\	V-	2G/	-ge-	.	.	2r	.
.	.	.	.	4c\	-mi-	.	.
2F\	-ni-	2.A/	-ni-	2c\	-ne	2.f\	Do-
2D\	-ge-	.	.	2d\	fi-	.	.
.	.	4G/	.	.	.	4f\	-mi-
*	*	*	*	*	*	*custos:g	*
2D\	-ni-	4F/	.	2A\	-li	2f\	-ne
.	.	4E/	.	.	.	.	.
=38-	=38-	=38-	=38-	=38-	=38-	=38-	=38-
!	!	!	!	!LO:SIC:v:l:s=U-	!	!LO:PB:g=original	!
1BB-	-te	2D/	-te	2B-\	V-	2g\	fi-
*	*	*	*ij	*	*	*	*
!	!	!LO:SIC:v:l:s=U-	!	!	!	!	!
.	.	2D/	V-	2.d\	-ni-	2f\	-li
!	!	!	!	!	!	!LO:SIC:v:l:s=U-	!
0r	.	2A/	-ni-	.	.	2e\	V-
.	.	.	.	4c\	-ge-	.	.
.	.	2F/	-ge-	1c\	.	2f\	-ni-
=39-	=39-	=39-	=39-	=39-	=39-	=39-	=39-
.	.	1G	-ni-	.	.	2d\	-ge-
.	.	.	.	2B-\	-ni-	2d\	-ni-
2r	.	1C	-te	0c	-te	2c/	-te
*	*ij	*	*Xij	*	*	*	*ij
2.C/	Do-	.	.	.	.	2.e\	Do-
=40-	=40-	=40-	=40-	=40-	=40-	=40-	=40-
.	.	2r	.	.	.	.	.
4C/	-mi-	.	.	.	.	4e\	-mi-
2C/	-ne	2G/	Do-	.	.	2e\	-ne
!	!	!	!	!LO:SIC:v:l:s=U-	!	!	!
2D/	fi-	2F/	-mi-	2B-\	v-	2f\	fi-
2C/	-li	2G/	-ne	2c\	-ni-	2e\	-li
=41-	=41-	=41-	=41-	=41-	=41-	=41-	=41-
!LO:SIC:v:l:s=U-	!	!	!	!	!	!LO:SIC:v:l:s=U-	!
2BB-/	V-	2B-\	fi-	2F/	-ge-	2d\	V-
*custos:G	*	*custos:G	*	*	*	*	*
2C/	-ni-	2G/	-li	2E/	-ni-	1c	-ni-
*	*	*	*	*custos:A	*	*	*
!LO:LB:g=original	!	!LO:LB:g=original	!	!	!	!	!
!	!	!LO:SIC:v:l:s=U-	!	!	!	!	!
1GG	-ge-	1G	V-	1D	-te	.	.
.	.	.	.	.	.	2B-/	-ge-
=42-	=42-	=42-	=42-	=42-	=42-	=42-	=42-
!	!	!	!	!LO:LB:g=original	!	!	!
2AA/	.	2C/	-ni-	2A/	.	1c	-ni-
2FF/	.	1F	-ge-	2A/	.	.	.
1C	-ni-	.	.	1G	.	0c	-te
*	*	*	*	*	*	*	*Xij
.	.	2E/	-ni-	.	.	.	.
=43-	=43-	=43-	=43-	=43-	=43-	=43-	=43-
1FF	-te	1F	-te	2A/	.	.	.
.	.	.	.	2A/	.	.	.
*	*Xij	*	*	*	*	*	*
0GG	Je-	0D	Je-	1G	Je-	1B-	JE-
=44-	=44-	=44-	=44-	=44-	=44-	=44-	=44-
!	!	!	!	!	!	!LO:SIC:v:l:s==su	!
.	.	.	.	2.G/	-ſu	1B-	-SV
.	.	.	.	4F/	.	.	.
1AA	-ſu	1C	-ſu	1E	chr(i-	1A	CHRI-
=45-	=45-	=45-	=45-	=45-	=45-	=45-	=45-
2BB-/	Chr(i-	1D	chri-	2D/	-st)e	2F/	.
*	*	*	*	*	*ij	*	*
*	*	*	*	*	*	*custos:c	*
2GG/	.	.	.	1G	Je-	2B-/	-ſte
!	!	!	!	!	!	!LO:LB:g=original	!
!	!	!LO:TX:t=P:problem=tekst niewidoczny - zaklejony	!	!	!	!	!
1C	-st)e	1E	-ſte	.	.	1c	.
.	.	.	.	2A\	.	.	.
=46-	=46-	=46-	=46-	=46-	=46-	=46-	=46-
*lig	*ij	*	*	*	*	*	*ij
1BB-	Je-	1.F	.	1B-	.	2.d\	JE-
.	.	.	.	.	.	4c/	.
1D	.	.	.	4A\	.	4d\	.
.	.	.	.	4G\	.	4e\	.
.	.	2F/	.	4A\	.	1f\	.
.	.	.	.	4B-\	.	.	.
*Xlig	*	*	*	*	*	*	*
=47-	=47-	=47-	=47-	=47-	=47-	=47-	=47-
0C	.	0G	.	0c	-ſu	.	.
!	!	!	!	!	!	!LO:SIC:v:l:s==su	!
.	.	.	.	.	.	4e\	-SV
.	.	.	.	.	.	4d\	.
.	.	.	.	.	.	1e	CHRI-
=48-	=48-	=48-	=48-	=48-	=48-	=48-	=48-
1FF	-ſu	00.Fl	.	1A	chr(i-	1f	-ſte
1BB-	Chr(i-	.	.	1B-	.	1d	JE-
=49-	=49-	=49-	=49-	=49-	=49-	=49-	=49-
!	!	!	!	!	!	!LO:SIC:v:l:s==su	!
2AA/	.	.	.	2c\	.	2c/	-SV
2BB-/	.	.	.	2d\	.	1B-	CHRI-
*	*	*	*	*custos:A	*	*	*
0.FF;>l/	-st)e	.	.	0.c;<l\	-st)e	.	.
.	.	.	.	.	.	4A/	.
.	.	.	.	.	.	4G/	.
=50-	=50-	=50-	=50-	=50-	=50-	=50-	=50-
*	*Xij	*	*	*	*Xij	*	*
.	.	.	.	.	.	0A;l	-ſte
*	*	*	*	*	*	*	*Xij
=51||	=51||	=51||	=51||	=51||	=51||	=51||	=51||
!	!	!	!	!LO:PB:g=original	!	!	!
1F	Do-	1F	Do-	1A	Do-	0r	.
2D\	-mi-	2F/	-mi-	2A/	-mi-	.	.
2D\	-ne	2F/	-ne	1F/	-ne	.	.
=52-	=52-	=52-	=52-	=52-	=52-	=52-	=52-
*custos:F	*	*	*	*	*	*	*
1C	d(e)-	1G	de-	.	.	1c	Do-
.	.	.	.	2E/	de-	.	.
!LO:LB:g=original	!	!	!	!	!	!	!
2F\	-us	2A/	-us	1F	-us	2c/	-mi-
2A\	a-	2A/	a-	.	.	2c/	-ne
=53-	=53-	=53-	=53-	=53-	=53-	=53-	=53-
2G\	-gnus	1B-	-gnus	1r	.	1d	De-
2G\	de-	.	.	.	.	.	.
1C	-i	1G	de-	1c	a-	2e\	-us.
*	*	*	*	*	*	*custos:f	*
.	.	.	.	.	.	2e\	a-
=54-	=54-	=54-	=54-	=54-	=54-	=54-	=54-
!	!	!	!	!	!	!LO:LB:g=original	!
2F\	a-	1F	-i,	2A\	-gnus	1f	-gnus
2A\	-gnus	.	.	1c	.	.	.
1G	de-	2r	.	.	.	1d	de-
.	.	1G/	A-	2B-\	de-	.	.
=55-	=55-	=55-	=55-	=55-	=55-	=55-	=55-
2C/	-i	.	.	2c\	-i	1c	-i
*	*	*	*	*	*ij	*	*
2F\	Do-	4F/	-gnus	2A\	a-	.	.
.	.	4G/	.	.	.	.	.
*	*	*	*	*	*	*	*ij
2F\	-mi-	4A\	.	2A\	-gnus	2.f\	a-
.	.	4B-\	.	.	.	.	.
2F\	-ne	2.c\	de-	2A\	de-	.	.
.	.	.	.	.	.	4f\	-gnus
=56-	=56-	=56-	=56-	=56-	=56-	=56-	=56-
1G	de-	.	.	2G/	-i	2e\	de-
.	.	8B-\	-i	.	.	.	.
.	.	8A\	.	.	.	.	.
*	*	*	*	*	*Xij	*	*
*	*	*custos:c	*	*	*	*	*
.	.	2B-\	.	2g\	fi-	2d\	.
!	!	!LO:LB:g=original	!	!	!	!	!
2A\	-us	1c	.	2e\	-li-	4c\	-i
.	.	.	.	.	.	4d\	.
2A\	a-	.	.	2c\	-us	4e\	.
.	.	.	.	.	.	4f\	.
=57-	=57-	=57-	=57-	=57-	=57-	=57-	=57-
1B-	-gnus	0r	.	1.d	pa-	4g\	a-
.	.	.	.	.	.	4f\	.
.	.	.	.	.	.	1f	-gnus
1G	de-	.	.	.	.	.	.
.	.	.	.	4c\	.	2e\	de-
.	.	.	.	4B-\	.	.	.
=58-	=58-	=58-	=58-	=58-	=58-	=58-	=58-
*	*	*	*ij	*	*	*	*
2F\	-i	1F	Do	2A\	-tris	2f\	-i
*	*ij	*	*	*	*	*	*Xij
1BB-	Do-	.	.	1B-	Do-	1d	Do-
.	.	2F/	mi-	.	.	.	.
*	*	*	*	*custos:B-	*	*	*
2BB-/	-mi-	2F/	-ne	2B-\	-mi-	2d\	-mi-
=59-	=59-	=59-	=59-	=59-	=59-	=59-	=59-
*custos:D	*	*	*	*	*	*	*
!	!	!	!	!LO:LB:g=original	!	!	!
1E-X	-ne	1G	de-	2B-\	-ne	2g\	-ne
.	.	.	.	2c\	de-	2g\	De-
!LO:LB:g=original	!	!	!	!	!	!	!
1D	de-	2A/	-us,	2d\	-us	1f	-ŭs
.	.	2A/	a-	2d\	A-	.	.
=60-	=60-	=60-	=60-	=60-	=60-	=60-	=60-
2BB-/	-us	1B-	-gnus	2d\	-gnus	2d\	a-
2BB-/	a-	.	.	2d\	de-	1f	-gnus
1C	-gnus	1G	de-	2c\	-i	.	.
.	.	.	.	2c\	fi-	2e\	de-
=61-	=61-	=61-	=61-	=61-	=61-	=61-	=61-
4D/	de-	1F	-i	2A\	-li-	2f\	-i
4C/	.	.	.	.	.	.	.
*	*	*	*Xij	*	*	*	*
*	*	*	*	*	*	*custos:d	*
4BB-/	.	.	.	2.B-\	-us	2d\	fi-
4AA/	.	.	.	.	.	.	.
!	!	!	!	!	!	!LO:LB:g=original	!
2GG/	-i	1G	fi-	.	.	2d\	-li-
.	.	.	.	4A/	.	.	.
*	*Xij	*	*	*	*	*	*
2GG/	fi-	.	.	4G/	.	2.d\	-us
.	.	.	.	4F/	.	.	.
=62-	=62-	=62-	=62-	=62-	=62-	=62-	=62-
2C/	-li-	2E/	-li-	2G/	.	.	.
.	.	.	.	.	.	4c/	pa-
2FF/	-us	2F/	-us	2A/	.	1c	-tris
1GG	p(at)-	1D	pat-	1G	pa-	.	.
.	.	.	.	.	.	2B-/	.
=63-	=63-	=63-	=63-	=63-	=63-	=63-	=63-
2C/	-ris	1C	-ris.	2E/	-tris	2c/	.
*	*	*	*	*	*ij	*	*ij
2AA/	.	.	.	2A/	fi-	2c/	fi-
2D/	.	2r	.	2F/	-li-	2A/	-li-
2BB-/	.	2F/	Qui	1F/	-us	2B-/	-us
=64-	=64-	=64-	=64-	=64-	=64-	=64-	=64-
1C	.	1c	tol-	.	.	1G	pa-
.	.	.	.	2E/	pa-	.	.
*	*	*custos:A	*	*	*	*	*
0FF	.	2c\	-lis	2F/	-tris	1A	-tris
*	*	*	*	*	*Xij	*	*Xij
*	*	*	*	*custos:F	*	*	*
!	!	!LO:LB:g=original	!	!	!	!	!
.	.	1A\	pec-	2C/	qui	.	.
=65-	=65-	=65-	=65-	=65-	=65-	=65-	=65-
!	!	!	!	!LO:LB:g=original	!	!	!
.	.	.	.	1F	tol-	2r	.
.	.	2A/	-ca-	.	.	2F/	Q(ui)
2r	.	1A	-ta	2F/	-lis	1c	tol-
2FF/	qui	.	.	2F/	pec-	.	.
=66-	=66-	=66-	=66-	=66-	=66-	=66-	=66-
1C	tol-	4G/	mun-	2E/	-ca-	2c/	-lis
.	.	4F/	.	.	.	.	.
.	.	4E/	.	2G/	-ta	2c/	pec-
.	.	4D/	-di,	.	.	.	.
1C	-lis	2C/	.	4G/	mun-	2.c/	-ca-
.	.	.	.	4F/	.	.	.
!	!	!LO:SIC:v:l:s=qui	!	!	!	!	!
.	.	2G/	QVi	4E/	.	.	.
.	.	.	.	4D/	.	4d\	-ta
=67-	=67-	=67-	=67-	=67-	=67-	=67-	=67-
2r	.	1c	tol-	2C/	-di	2e\	.
*	*ij	*	*	*	*ij	*	*
*custos:F	*	*	*	*	*	*	*
2C/	qui	.	.	2G/	qui	2e\	mun-
!LO:PB:g=original	!	!	!	!	!	!	!
1F	tol-	2c\	-lis	2.A/	tol-	2c/	-d(i)
*	*	*	*	*	*	*	*ij
.	.	1A\	pec-	.	.	2c/	q(ui)
.	.	.	.	4B-\	.	.	.
=68-	=68-	=68-	=68-	=68-	=68-	=68-	=68-
*	*	*	*	*	*	*custos:f	*
2F\	-lis	.	.	2c\	-lis	1f	tol-
*	*Xij	*	*	*	*	*	*
1D	pec-	2A/	-ca-	4F/	pec-	.	.
.	.	.	.	4G/	.	.	.
!	!	!	!	!	!	!LO:PB:g=original	!
.	.	1A	-ta	4A/	.	2f\	-lis
.	.	.	.	4B-/	.	.	.
2C/	-ca-	.	.	4c\	.	2e\	pec-
.	.	.	.	4B-\	.	.	.
=69-	=69-	=69-	=69-	=69-	=69-	=69-	=69-
*	*	*lig	*	*	*	*	*
1D	-ta	1F	mun-	4A\	.	2d\	-ca-
.	.	.	.	4G\	.	.	.
.	.	.	.	1F	-ca-	2B-/	-ta
1C	m(un)-	1G	.	.	.	1c	mun-
.	.	.	.	2E/	-ta	.	.
*	*	*Xlig	*	*	*	*	*
=70-	=70-	=70-	=70-	=70-	=70-	=70-	=70-
2FF/	-di	2A,/	-di	2.F/	mun-	2c/	-d(i)
*	*	*	*	*	*	*	*Xij
1F	mi-	1A	Mi-	.	.	2c/	mi-
.	.	.	.	4G/	.	.	.
.	.	.	.	1A	-di	2A/	-ſe-
2D\	-ſe-	2F/	-ſe-	.	.	2.d\	-re-
*	*	*	*	*	*Xij	*	*
=71-	=71-	=71-	=71-	=71-	=71-	=71-	=71-
2E-X\	-re-	2G/	-re-	0r	.	.	.
.	.	.	.	.	.	4c/	-re
2C/	-re	1A	-re	.	.	1c	no-
*lig	*	*	*	*	*	*	*
1D	no-	.	.	.	.	.	.
.	.	4G/	.	.	.	2B-/	-bis
*	*	*custos:E	*	*	*	*	*
.	.	4F/	.	.	.	.	.
=72-	=72-	=72-	=72-	=72-	=72-	=72-	=72-
*	*	*	*	*custos:c	*	*	*
!	!	!LO:LB:g=original	!	!	!	!	!
1C	.	4E/	no-	2r	.	1c	.
.	.	4F/	.	.	.	.	.
!	!	!	!	!LO:LB:g=original	!	!	!
.	.	4G/	.	1c	mi-	.	.
.	.	4E/	.	.	.	.	.
*Xlig	*	*	*	*	*	*	*
1FF	-bis	2F/	-bis	.	.	2r	.
*	*	*	*ij	*	*	*	*ij
.	.	1F/	Mi-	1A\	-ſe-	2c/	mi-
=73-	=73-	=73-	=73-	=73-	=73-	=73-	=73-
0r	.	.	.	.	.	2c/	-ſe-
.	.	2D/	-ſe-	2B-\	-re-	2.d\	-re-
.	.	2E-X/	-re-	2G/	-re	.	.
.	.	.	.	.	.	4c/	.
.	.	2C/	-re	1A\	no-	1c\	-re
=74-	=74-	=74-	=74-	=74-	=74-	=74-	=74-
2r	.	1D	no-	.	.	.	.
*	*ij	*	*	*	*	*	*
2F\	mi-	.	.	4G/	.	2B-/	no-
.	.	.	.	4F/	.	.	.
*	*	*	*	*	*	*custos:c	*
2F\	-ſe-	1C	-bis	1G	.	1c	-bis
2E\	-re-	.	.	.	.	.	.
*	*	*	*Xij	*	*	*	*
=75-	=75-	=75-	=75-	=75-	=75-	=75-	=75-
!	!	!	!	!	!	!LO:LB:g=original	!
2F\	-re	2r	.	2A\	-bis	2.c\	mi-
2F\	no-	1c	Mi-	2A\	.	.	.
.	.	.	.	.	.	4d\	.
2C/	-bis	.	.	2G/	.	2e\	-ſe-
*	*Xij	*	*	*	*	*	*
*custos:BB-	*	*	*	*	*	*	*
2D/	mi-	2A\	-ſe-	1d\	.	2f\	.
=76-	=76-	=76-	=76-	=76-	=76-	=76-	=76-
!LO:LB:g=original	!	!	!	!	!	!	!
2BB-/	-ſe-	2B-\	-re-	.	.	4g\	-re-
.	.	.	.	.	.	4f\	.
2BB-/	-re-	2B-\	-re	2d\	.	1f	-re
2C/	-re	1G	no-	1c	.	.	.
2C/	no-	.	.	.	.	2e\	no-
=77-	=77-	=77-	=77-	=77-	=77-	=77-	=77-
!LO:N:vis=1	!	!	!	!	!	!	!
0FF;	-bis	0F;l	-bis.	0A;l	.	0f;l	-bis
*	*	*	*	*	*	*	*Xij
=78||-	=78||-	=78||-	=78||-	=78||-	=78||-	=78||-	=78||-
!	!	!LO:SIC:v:l:s=Qui	!	!	!	!	!
1r	.	1F	QVi	00r	.	0r	.
1C	Qui	1.c	tol-	.	.	.	.
=79-	=79-	=79-	=79-	=79-	=79-	=79-	=79-
1.F	tol-	.	.	.	.	1c	Q(ui)
.	.	2B-\	-lis	.	.	.	.
.	.	2A\	pec-	.	.	1.f	tol-
2E\	-lis	2G/	-ca-	.	.	.	.
=80-	=80-	=80-	=80-	=80-	=80-	=80-	=80-
2D/	pec-	2F/	-ta	1F	Di-	.	.
2C/	.	2A/	mun-	.	.	2e\	-lis
2BB-/	-ca-	2D/	-di	1F	-es	2d\	pec-
*	*	*	*ij	*	*	*	*
2AA/	-ta	2F/	pec-	.	.	2c/	-ca-
=81-	=81-	=81-	=81-	=81-	=81-	=81-	=81-
1GG	m(un)-	2D/	-ca-	1G	eſt	2B-/	-ta
.	.	2E/	.	.	.	2B-/	mun-
2FF/	-di	2F/	.	1A	le-	2A/	-di,
*	*ij	*	*	*	*	*	*
2FF/	pec-	2A/	-ta	.	.	2c/	pec-
=82-	=82-	=82-	=82-	=82-	=82-	=82-	=82-
*	*	*	*	*custos:G	*	*	*
2BB-/	-ca-	4G/	mun-	1B-	-ti-	2d\	-(ca)-
.	.	4F/	.	.	.	.	.
*	*	*	*	*	*	*custos:c	*
2BB-/	-ta	1F	.	.	.	2d\	-ta
!	!	!	!	!LO:PB:g=original	!	!LO:LB:g=original	!
1C	m(un)-	.	.	1G	-ci-	2c/	mun-
.	.	2E/	.	.	.	2c/	-di
=83-	=83-	=83-	=83-	=83-	=83-	=83-	=83-
1FF	-di	2F/	-di	0F	-ae	2r	.
*	*Xij	*	*Xij	*	*	*	*ij
*	*	*custos:A	*	*	*	*	*
.	.	2A/	qui	.	.	1c	q(ui)
!	!	!LO:LB:g=original	!	!	!	!	!
2r	.	2A/	tol-	.	.	.	.
2FF/	qui	2A/	-lis	.	.	1f\	tol-
=84-	=84-	=84-	=84-	=84-	=84-	=84-	=84-
*custos:BB-	*	*	*	*	*	*	*
1C	tol-	2c\	pec-	1G	in	.	.
.	.	2G/	-ca-	.	.	2e\	-lis
!LO:LB:g=original	!	!	!	!	!	!	!
2BB-/	-lis	2B-\	-ta	1G	or-	2d\	pec-
2C/	pec-	4A/	mun-	.	.	2c/	-(ca)-
.	.	4G/	.	.	.	.	.
=85-	=85-	=85-	=85-	=85-	=85-	=85-	=85-
2D/	-ca-	2F,/	-di	1D	-tu	2B-/	.
!	!	!LO:SIC:v:l:s=qui	!	!	!	!	!
2F\	-ta	2F/	QVi	.	.	2A/	-ta
2C/	m(un)-	1.c	tol-	1E	re-	1G	mun-
2C/	-di	.	.	.	.	.	.
=86-	=86-	=86-	=86-	=86-	=86-	=86-	=86-
2.FF/	.	.	.	0F	-ga-	2F/	-di
.	.	2B-\	-lis	.	.	2d\	q(ui)
4GG/	.	.	.	.	.	.	.
2AA/	.	2A\	pec-	.	.	2c/	tol-
1BB-/	.	2G/	-ca-	.	.	1d\	-lis
=87-	=87-	=87-	=87-	=87-	=87-	=87-	=87-
.	.	2.F/	-ta	0F	-li	.	.
2AA/	.	.	.	.	.	2c/	pec-
.	.	4E/	mun-	.	.	.	.
1BB-	.	1D	-di.	.	.	1B-	-(ca)-
=88-	=88-	=88-	=88-	=88-	=88-	=88-	=88-
2FF/	.	0C	.	1F	nam	2A/	-ta
1FF	ſu-	.	.	.	.	4c/	mun-
.	.	.	.	.	.	4B-/	.
.	.	.	.	1F	pro-	4A/	.
.	.	.	.	.	.	4G/	.
2FF/	-sci-	.	.	.	.	1F/	.
=89-	=89-	=89-	=89-	=89-	=89-	=89-	=89-
1C	-pe	2r	.	1G	-ceſ-	.	.
*	*	*	*	*	*	*custos:F	*
.	.	1C	ſu-	.	.	2E/	.
!	!	!	!	!	!	!LO:LB:g=original	!
2.FF/	de-	.	.	1A	-sit	0F	-di
*	*	*	*	*	*	*	*Xij
.	.	2C/	-ſci-	.	.	.	.
4FF/	-pre-	.	.	.	.	.	.
=90-	=90-	=90-	=90-	=90-	=90-	=90-	=90-
*	*	*custos:F	*	*	*	*	*
2BB-/	-ca-	2D/	-pe	1B-	ho-	.	.
!	!	!LO:LB:g=original	!	!	!	!	!
2BB-/	-ti-	1F	de-	.	.	.	.
1C	-o-	.	.	1G	-di-	2r	.
.	.	2E/	-pre-	.	.	1c\	ſu-
=91-	=91-	=91-	=91-	=91-	=91-	=91-	=91-
1FF	-(ne)m	2F/	-ca-	1F	-e	.	.
.	.	2A/	-ti-	.	.	2c/	-ſci-
*custos:C	*	*	*	*	*	*	*
1r	.	2.A/	-o-	1F	de	2d\	-pe
.	.	.	.	.	.	1f\	de-
.	.	4B-\	-nem	.	.	.	.
!LO:LB:g=original	!	!	!	!	!	!	!
=92-	=92-	=92-	=92-	=92-	=92-	=92-	=92-
1.C	ſu-	1c	.	1G	Ven-	.	.
.	.	.	.	.	.	4e\	.
.	.	.	.	.	.	4d\	.
*	*	*	*	*custos:D	*	*	*
.	.	1c	noſ-	1G	-tre	2e\	-p(re)-
2C/	-ſci-	.	.	.	.	2e\	-ca-
=93-	=93-	=93-	=93-	=93-	=93-	=93-	=93-
!	!	!	!	!LO:LB:g=original	!	!	!
2D/	-pe	2A,/	-tra(m),	1D	Vir-	2d\	-ti-
2F\	de-	2A/	de-	.	.	2d\	-o-
1C	-p(re)-	2G/	-p(re)-	1E	-gi-	1c	-ne(m)
.	.	2G/	-ca-	.	.	.	.
=94-	=94-	=94-	=94-	=94-	=94-	=94-	=94-
2.FF/	-ca-	2.A/	-ti-	0F	-na-	2r	.
.	.	.	.	.	.	2f\	de-
4GG/	.	4B-\	-o-	.	.	.	.
2AA/	-ti-	2c\	-(ne)m	.	.	2.f\	-p(re)-
1BB-/	-o-	1B-\	.	.	.	.	.
.	.	.	.	.	.	4e\	-ca-
=95-	=95-	=95-	=95-	=95-	=95-	=95-	=95-
.	.	.	.	0F	-li	2d\	-ti-
2C/	-nem	1A	no-	.	.	1c	-o-
1D	n(ost)-	.	.	.	.	.	.
.	.	4G/	.	.	.	2B-/	-n(em)
*	*	*custos:G	*	*	*	*	*
.	.	4F/	.	.	.	.	.
=96-	=96-	=96-	=96-	=96-	=96-	=96-	=96-
!	!	!LO:LB:g=original	!	!	!	!	!
2C/	-ra(m)	2G,/	-ſtram	1c	Pu-	4c/	no-
.	.	.	.	.	.	4B-/	.
1F	.	1A	Q(ui)	.	.	4A/	.
.	.	.	.	.	.	4G/	.
.	.	.	.	1c	-er	2F/	-ſtra(m)
*	*	*	*	*	*	*custos:f	*
2F\	qui	2A/	ſe-	.	.	2f\	qui
=97-	=97-	=97-	=97-	=97-	=97-	=97-	=97-
!	!	!	!	!	!	!LO:PB:g=original	!
1BB-	ſe-	1B-	-des	1d	ad-	2f\	ſe-
.	.	.	.	.	.	2f\	-des
2C/	-des	2G/	ad	1c	-mi-	2e\	ad
2C/	ad	2G/	dex-	.	.	2g\	dex-
=98-	=98-	=98-	=98-	=98-	=98-	=98-	=98-
2F\	de-	2A/	-te-	1A	-ra-	4f\	-te-
.	.	.	.	.	.	4e\	-ra(m)
2A\	-xte-	2c\	-ram	.	.	4d\	.
.	.	.	.	.	.	4c/	p(at)-
1G	-ra(m)	4B-\	pa-	1B-	-bi-	1d	-ris.
.	.	4A\	.	.	.	.	.
.	.	4G/	.	.	.	.	.
.	.	4F/	.	.	.	.	.
=99-	=99-	=99-	=99-	=99-	=99-	=99-	=99-
2C/	p(at)-	2G/	-tris	0c	-lis	2e\	.
*	*	*	*ij	*	*	*	*
1C	-ris	1G	q(ui)	.	.	2.e\	qui
.	.	.	.	.	.	4f\	ſe-
*	*ij	*	*	*	*	*	*
*custos:F	*	*	*	*	*	*	*
2C/	ſe-	2G/	ſe-	.	.	4g\	-des
.	.	.	.	.	.	4e\	.
=100-	=100-	=100-	=100-	=100-	=100-	=100-	=100-
!LO:PB:g=original	!	!	!	!	!	!	!
2F\	-des	2A/	-des	1c	to-	1f	.
1F	ad	2A/	ad	.	.	.	.
.	.	2A/	dex-	1c	-tus	2F/	ad
2E\	dex-	2.G/	-te-	.	.	2G/	dex-
=101-	=101-	=101-	=101-	=101-	=101-	=101-	=101-
2D/	-te-	.	.	1d	de-	2A/	-te-
.	.	4F/	.	.	.	.	.
2BB-/	-ra(m)	1F	-ram	.	.	2B-/	-ra(m)
1C	p(at)-	.	.	1c	-lec-	1G	pa-
*	*	*custos:F	*	*	*	*	*
.	.	2E/	pa-	.	.	.	.
=102-	=102-	=102-	=102-	=102-	=102-	=102-	=102-
!	!	!LO:LB:g=original	!	!	!	!	!
2FF/	-ris	2F/	-tris	1A	-ta-	2A/	-(tr)is
*	*Xij	*	*Xij	*	*	*	*
*	*	*	*	*	*	*custos:B-	*
2AA/	mi-	2C/	Mi-	.	.	2c/	ad
!	!	!	!	!	!	!LO:LB:g=original	!
2BB-/	-ſe-	2D/	-ſe-	1G	-bi-	2B-/	dex-
2C/	-re-	2E/	-re-	.	.	4A/	-te-
.	.	.	.	.	.	4G/	.
=103-	=103-	=103-	=103-	=103-	=103-	=103-	=103-
*	*	*	*	*custos:D	*	*	*
2D/	-re	2F/	-re	0F	-lis	2F/	-ram
2.BB-/	no-	2.D/	no-	.	.	1B-	p(at)-
4C/	.	4E/	.	.	.	.	.
4D/	.	4F/	.	.	.	4A/	-ris
4E/	.	4G/	.	.	.	4G/	.
=104-	=104-	=104-	=104-	=104-	=104-	=104-	=104-
!	!	!	!	!LO:LB:g=original	!	!	!
2F\	.	2.A\	.	1D	in	2F/	.
2D\	.	.	.	.	.	2F/	Mi-
.	.	4B-\	-bis	.	.	.	.
1C	.	2c\	.	1E	hu-	2G/	-ſe-
*	*	*	*ij	*	*	*	*
.	.	2C/	Mi-	.	.	2A/	-re-
=105-	=105-	=105-	=105-	=105-	=105-	=105-	=105-
2BB-/	-bis	2D/	-ſe-	1F	-ma-	2B-/	-re
*	*ij	*	*	*	*	*	*
2FF/	mi-	2C/	-re-	.	.	2A/	no-
1GG	.	2C/	-re	1D	-ni-	1G	-bis
.	.	2BB-/	no-	.	.	.	.
=106-	=106-	=106-	=106-	=106-	=106-	=106-	=106-
*	*	*	*	*	*	*	*ij
2AA/	.	2C/	-bis	0C	-ta-	2E/	mi-
*	*	*	*Xij	*	*	*	*
*	*	*custos:G	*	*	*	*	*
2FF/	.	2F/	mi-	.	.	1F	-ſe-
*custos:FF	*	*	*	*	*	*	*
!	!	!LO:LB:g=original	!	!	!	!	!
1C	.	1G	-ſe-	.	.	.	.
.	.	.	.	.	.	2E/	-re-
=107-	=107-	=107-	=107-	=107-	=107-	=107-	=107-
!LO:LB:g=original	!	!	!	!	!	!	!
1FF	-ſe-	2.A\	-re-	0C	-te	2F/	-re
.	.	.	.	.	.	2F/	no-
.	.	4B-\	.	.	.	.	.
1AA	.	2c\	-re	.	.	1E	-bis
*	*	*	*	*	*	*	*Xij
.	.	2.A/	no-	.	.	.	.
=108-	=108-	=108-	=108-	=108-	=108-	=108-	=108-
2.D/	-re-	.	.	1F	qui	0r	.
.	.	4G/	.	.	.	.	.
.	.	4F/	.	.	.	.	.
4C/	.	4E/	.	.	.	.	.
2BB-/	.	2D/	-bis	1F	in-	.	.
*	*	*	*ij	*	*	*	*
2AA/	.	2F/	Mi-	.	.	.	.
=109-	=109-	=109-	=109-	=109-	=109-	=109-	=109-
2BB-/	.	2F/	-ſe-	1G	-eſ-	2r	.
!	!	!	!	!	!	!LO:SIC:v:l:s=Quo-	!
2C/	.	2E/	-re-	.	.	1c	QVo-
2FF/	.	2F/	-re	1A	-ti-	.	.
*	*	*	*	*	*	*custos:B-	*
2AA/	.	2C/	no-	.	.	2c/	-ni-
=110-	=110-	=110-	=110-	=110-	=110-	=110-	=110-
!	!	!	!	!	!	!LO:LB:g=original	!
2GG/	-re	1G	-bis	1B-	-ma-	2B-/	-am
2.GG/	no-	.	.	.	.	2G/	tu
.	.	1r	.	1G	-bi-	1B-	ſo-
4AA/	.	.	.	.	.	.	.
4BB-/	.	.	.	.	.	.	.
4C/	.	.	.	.	.	.	.
=111-	=111-	=111-	=111-	=111-	=111-	=111-	=111-
*	*	*	*Xij	*lig	*	*	*
2D\	-bis	1r	.	1F	-lis	2.A/	-lus
*	*Xij	*	*	*	*	*	*
1F	quo-	.	.	.	.	.	.
.	.	.	.	.	.	4G/	.
.	.	2r	.	1A	.	4A/	.
.	.	.	.	.	.	4B-/	.
!	!	!LO:SIC:v:l:s=quo-	!	!	!	!	!
2F\	-ni-	1c\	QVo-	.	.	4c/	.
.	.	.	.	.	.	4d\	.
*	*	*	*	*Xlig	*	*	*
=112-	=112-	=112-	=112-	=112-	=112-	=112-	=112-
2E-X\	-am	.	.	1G	eſt	1e-X	ſanc-
2C/	tu	2c\	-ni-	.	.	.	.
1E-	ſo-	2B-\	-am	1G	et	2e-\	-tus
*	*	*	*	*	*	*	*ij
.	.	2G/	tu	.	.	2B-/	tu
=113-	=113-	=113-	=113-	=113-	=113-	=113-	=113-
*	*	*custos:G	*	*	*	*	*
1BB-	-l(us)	1B-	ſo-	1D	in-	2d\	ſo-
.	.	.	.	.	.	2d\	-lus
*custos:FF	*	*	*	*custos:F	*	*	*
!	!	!LO:LB:g=original	!	!	!	!	!
1C	ſan-	2G/	-lus	1E	-ef-	1c	ſanc-
.	.	2G/	ſanc-	.	.	.	.
=114-	=114-	=114-	=114-	=114-	=114-	=114-	=114-
!LO:LB:g=original	!	!	!	!LO:LB:g=original	!	!	!
2FF/	-ctus	2A/	-tus,	1F	-fa-	2c/	-tus
*	*	*	*	*	*	*	*Xij
2BB-/	tu	1F	tu	.	.	2d\	tu
2BB-/	ſo-	.	.	1D	-bi-	2d\	ſo-
2GG/	-lus	2G/	ſo-	.	.	2B-/	-lus
=115-	=115-	=115-	=115-	=115-	=115-	=115-	=115-
2AA/	d(o-	2E/	-lus	0C	-lis	2c/	d(o-
2FF/	-mi)-	1F	do-	.	.	2A/	-mi)-
1C	-nus	.	.	.	.	2G/	-nus
.	.	2E/	-mi-	.	.	1c\	tu
=116-	=116-	=116-	=116-	=116-	=116-	=116-	=116-
2r	.	1F	-nus.	1D	in	.	.
1F	Tu	.	.	.	.	2B-/	ſo-
.	.	2r	.	1C	di-	2A/	-lus
!	!	!LO:SIC:v:l:s=Tu	!	!	!	!	!
2E\	so-	2c\	TV	.	.	2G/	al-
=117-	=117-	=117-	=117-	=117-	=117-	=117-	=117-
*	*	*	*	*	*	*custos:c	*
!	!	!	!	!LO:SIC:v:l:s==vi-	!	!	!
2F\	-lus	2A\	ſo-	1D	-ui-	1F	-tiſ-
2BB-/	al-	2B-\	-lus	.	.	.	.
!	!	!	!	!	!	!LO:LB:g=original	!
2C/	-tiſ-	2G/	al-	1E	-ni-	1c	-ſi-
2C/	-si-	2G/	-tiſ-	.	.	.	.
=118-	=118-	=118-	=118-	=118-	=118-	=118-	=118-
*	*	*	*	*lig	*	*	*
2FF/	-m(us)	2A/	-si-	0F	-ta-	2c/	-mus
1BB-	Je-	2F/	-mus	.	.	2.d\	JE-
.	.	2B-\	JE-	.	.	.	.
.	.	.	.	.	.	4c/	-ſu
2D/	-su	2A/	-ſu	.	.	1f\	.
=119-	=119-	=119-	=119-	=119-	=119-	=119-	=119-
*	*	*custos:A	*	*	*	*	*
0C	chr(i-	0c	Chri-	0G	.	.	.
.	.	.	.	.	.	4e\	chri-
.	.	.	.	.	.	4d\	.
.	.	.	.	.	.	1e	-ſte
*	*	*	*	*Xlig	*	*	*
=120-	=120-	=120-	=120-	=120-	=120-	=120-	=120-
!	!	!LO:LB:g=original	!	!	!	!	!
0FF	-st)e	2A/	-ſte,	0F	-te	2f\	.
!	!	!	!	!	!	!LO:SIC:v:l:s=Cum	!
.	.	1A	Cum	.	.	1c	CVm
.	.	2F/	ſanc-	.	.	2A/	ſanc-
=121-	=121-	=121-	=121-	=121-	=121-	=121-	=121-
0r	.	2G/	-to	2r	.	2B-/	-to
.	.	4F/	ſpi-	1A	Cum	1c	ſpi-
.	.	4E/	-ri-	.	.	.	.
.	.	1D	-tu	.	.	.	.
.	.	.	.	2F/	.	2B-/	-ri-
=122-	=122-	=122-	=122-	=122-	=122-	=122-	=122-
1.C	Cum	2C/	.	2.G/	ſanc-	2c/	-tu
*	*	*	*ij	*	*	*	*ij
!	!	!	!	!	!	!LO:SIC:v:l:s=Cum	!
.	.	1E	Cum	.	.	1G	CVm
.	.	.	.	4F/	.	.	.
.	.	.	.	2E/	-to	.	.
*custos:BB-	*	*	*	*	*	*	*
2AA/	ſa(n)-	2C/	ſanc-	1F/	ſpi-	2A/	ſanc-
=123-	=123-	=123-	=123-	=123-	=123-	=123-	=123-
!LO:LB:g=original	!	!	!	!	!	!	!
2BB-/	-cto	2D/	-to	.	.	1G	-to
2C/	sp(i-	1C	ſpi-	2E/	-ri-	.	.
*lig	*	*	*	*lig	*	*	*
1GG	-ri-	.	.	1D	.	2G/	ſpi-
!	!	!LO:N:acc=#	!	!	!	!	!
!	!	!LO:TX:t=P:problem=# below	!	!	!	!	!
.	.	2BBn/	-ri-	.	.	2G/	-ri-
=124-	=124-	=124-	=124-	=124-	=124-	=124-	=124-
*	*	*	*	*custos:F	*	*	*
1C	.	0C	-tu	1E	.	2G/	-tu
*	*	*	*	*	*	*	*Xij
.	.	.	.	.	.	2G/	in
*Xlig	*	*	*Xij	*Xlig	*	*	*
!	!	!	!	!LO:PB:g=original	!	!	!
1FF	-t)u	.	.	2F/	-tu	2c/	glo-
*	*	*	*	*	*	*custos:B-	*
.	.	.	.	2C/	in	2A/	-ri-
=125-	=125-	=125-	=125-	=125-	=125-	=125-	=125-
!	!	!	!	!	!	!LO:PB:g=original	!
1r	.	2r	.	2G/	glo-	2B-/	-a
.	.	2C/	In	2E/	-ri-	2c/	de-
2r	.	2F/	Glo-	2F/	-a	2c/	-i
2GG/	in	2D/	-ri-	2G/	de-	2B-/	pa-
=126-	=126-	=126-	=126-	=126-	=126-	=126-	=126-
2C/	glo-	2E/	-a	2G/	 i	2c/	-tris
2AA/	-ri-	2F/	de-	2A/	p(at)-	2c/	de-
2BB-/	-a	2D/	-i	2G/	-ris	2B-/	-i
*	*	*custos:F	*	*	*	*	*
2C/	de-	2E/	pa-	2G/	in	2G/	p(at)-
=127-	=127-	=127-	=127-	=127-	=127-	=127-	=127-
!	!	!LO:LB:g=original	!	!	!	!	!
2AA/	-i	1F	-tris	2c\	glo-	2A/	-ris
*	*	*	*	*	*	*	*ij
1FF	p(at)-	.	.	1A	-ri-	2c/	in
.	.	1D	de-	.	.	2f\	glo-
2GG/	-ris	.	.	2B-\	-a	2d\	.
=128-	=128-	=128-	=128-	=128-	=128-	=128-	=128-
*	*ij	*	*	*	*	*	*
2C/	in	2C/	-i	2G/	.	2e\	-ri-
1BB-	glo-	1D	pa-	2B-\	.	2f\	.
.	.	.	.	2d\	pa-	2d\	-a
2C/	-ri-	2E/	-tris	4c\	.	2.g\	de-
.	.	.	.	4B-\	.	.	.
=129-	=129-	=129-	=129-	=129-	=129-	=129-	=129-
*	*	*lig	*	*	*	*	*
1D	-a	1F	A-	2A\	.	.	.
.	.	.	.	.	.	4f\	-i
.	.	.	.	2B-\	-tris	1f	p(at)-
1C	.	1G	.	1c	A-	.	.
.	.	.	.	.	.	2e\	.
*	*	*Xlig	*	*	*	*	*
=130-	=130-	=130-	=130-	=130-	=130-	=130-	=130-
2FF/	de-	00.F;l	-MEN	2A\	-men	2f\	-ris
*	*	*	*	*	*	*	*Xij
2BB-/	.	.	.	1B-	de-	1d	de-
2BB-/	-i	.	.	.	.	.	.
*	*	*	*	*custos:B-	*	*	*
2AA/	p(at)-	.	.	2c\	-i	2c/	-i
=131-	=131-	=131-	=131-	=131-	=131-	=131-	=131-
!	!	!	!	!LO:LB:g=original	!	!	!
1BB-	-ris	.	.	1B-	p(at)-	2.d\	p(at)-
*	*	*	*	*	*	*custos:f	*
.	.	.	.	.	.	4e\	-ris
*	*Xij	*	*	*	*	*	*
!	!	!	!	!	!	!LO:TX:t=P:problem=końcówka partii dopisana na końcu, a nie na początku następnego systemu	!
!	!	!	!	!	!	!LO:LB:g=original	!
1BB-	A-	.	.	2F/	-ris	2f\	.
.	.	.	.	1B-\	a-	1d\	A-
=132-	=132-	=132-	=132-	=132-	=132-	=132-	=132-
0FF;l	-men	.	.	.	.	.	.
.	.	.	.	4A/	-men	4c/	-men
.	.	.	.	4G/	.	4B-/	.
.	.	.	.	1A;<l	.	1cl;<	.
==	==	==	==	==	==	==	==
*-	*-	*-	*-	*-	*-	*-	*-
!!!system-decoration: [(s1,s2,s3,s4)]
!!!ENC: Mateusz Solarz
!!!END: 2022-03-09
!!!ENC: Kamil Watkowski
!!!END: 2022-03-14
!!!RDF**kern: l = terminal long
!!!RDF**kern: > = above
!!!RDF**kern: < = below
